app/component-library/components/Icons/Icon/assets/mobile.svg

<svg width="24" height="24" viewBox="0 0 24 24" fill="none" xmlns="http://www.w3.org/2000/svg">
<path d="M16.5212 2H8.04125C5.28125 2 4.28125 3 4.28125 5.81V18.19C4.28125 21 5.28125 22 8.04125 22H16.5112C19.2812 22 20.2812 21 20.2812 18.19V5.81C20.2812 3 19.2812 2 16.5212 2ZM12.2812 19.3C11.3213 19.3 10.5312 18.51 10.5312 17.55C10.5312 16.59 11.3213 15.8 12.2812 15.8C13.2412 15.8 14.0312 16.59 14.0312 17.55C14.0312 18.51 13.2412 19.3 12.2812 19.3ZM14.2812 6.25H10.2812C9.87125 6.25 9.53125 5.91 9.53125 5.5C9.53125 5.09 9.87125 4.75 10.2812 4.75H14.2812C14.6912 4.75 15.0312 5.09 15.0312 5.5C15.0312 5.91 14.6912 6.25 14.2812 6.25Z" fill="currentColor"/>
</svg>

<svg xmlns="http://www.w3.org/2000/svg" width="24" height="24" viewBox="0 0 24 24" fill="none"><path d="M16.521 2h-8.48c-2.76 0-3.76 1-3.76 3.81v12.38c0 2.81 1 3.81 3.76 3.81h8.47c2.77 0 3.77-1 3.77-3.81V5.81c0-2.81-1-3.81-3.76-3.81zm-4.24 17.3c-.96 0-1.75-.79-1.75-1.75s.79-1.75 1.75-1.75 1.75.79 1.75 1.75-.79 1.75-1.75 1.75zm2-13.05h-4c-.41 0-.75-.34-.75-.75s.34-.75.75-.75h4c.41 0 .75.34.75.75s-.34.75-.75.75z" fill="currentColor"/></svg>
